X:931
T:Jersey Blue
S:Bruce & Emmett's Drummers and Fifers Guide (1862), p. 93
M:2/4
L:1/16
Q:1/4=100
K:D
%%MIDI program 72
%%MIDI transpose 8
%%MIDI ratio 3 1
e2ec e2ec|e2ec dBGB|e2ec e2ec|[1 dBGB ABcd:|[2 dBGB "^fine"A2||fa|:a2af g2ge|
dBge dBGB|[1 a2af g2ge|dBGB Azfg:|[2 abaf gage|dBGB "^D.C. al fine"ABcd|
